X: 89
T: Missa Nunca fu\'e pena mayor / Gloria
N: Derived from Rue1020b-Missa_Nunca_fue_pena_mayor-Gloria.krn
C: Pierre de la Rue
%%abc-version 2.0
%%abcx-abcm2ps-target-version 5.9.1 (29 Sep 2008)
%%abc-creator hum2abc beta
%%abcx-conversion-date 2019/02/17 08:01:13
%%abc-edited-by Jesse Rodin
%%abc-edited-by Jesse Rodin; Chris Gage 10-25-2012
%%abcx-initial-encoding-date 2012/11/09/
%%humdrum-veritas 3235407927
%%humdrum-veritas-data 1690786827
%%linebreak <none>
%%barnumbers 0
L: 1/4
M: 3/1
Q: 1/2=120
%%staves [1 2 3 4]
V: 1 clef=treble
V: 2 clef=treble-8
V: 3 clef=treble-8
V: 4 clef=bass
K: C
[V:1] z12 | 
[V:2] E4G8 | 
[V:3] z12 | 
[V:4] z12 | 
[V:1] E4G8 | 
[V:2] A4B4B2c2- | 
[V:3] z12 | 
[V:4] z4z4E,4 | 
[V:1] A4B4B2c2- | 
[V:2] c2c2B6AG | 
[V:3] z12 | 
[V:4] A,,4E,8 | 
[V:1] c2c2B6AG | 
[V:2] A4B4z2B2 | 
[V:3] z12 | 
[V:4] F,4G,2E,2G,3A, | 
[V:1] A4z2B2c3B | 
[V:2] c3BG4A2c2 | 
[V:3] z12 | 
[V:4] F,4E,4A,,4 | 
[V:1] G2G2A2c2B2c2- | 
[V:2] B2c4BAG2A2 | 
[V:3] e12- | 
[V:4] E,4z4z2C,2- | 
[V:1] cBG2A2c2B2c2- | 
[V:2] c2B2c3BG2A2 | 
[V:3] e12- | 
[V:4] C,D,E,2A,,2A,2E,2A,2- | 
[V:1] cBGAB2A4^G2 | 
[V:2] c3BG2A2B4 | 
[V:3] e12 | 
[V:4] A,G,E,4A,,2E,4 | 
[V:1] A4z2E2G3G | 
[V:2] A6GFE4 | 
[V:3] c12- | 
[V:4] z2A,,2C,3C,C,4- | 
[V:1] G6FED4 | 
[V:2] z2e4dcB2d2 | 
[V:3] c8d3c | 
[V:4] C,4C,4G,4 | 
[V:1] C4z2D2E2C2 | 
[V:2] e2c2d2f2e4 | 
[V:3] A12- | 
[V:4] C,2F,3E,D,C,/B,,/A,,4 | 
[V:1] D2F2E4z2A2 | 
[V:2] z12 | 
[V:3] A12 | 
[V:4] z2D,2D,2C,2D,2F,2 | 
[V:1] B2G2A2c2B4 | 
[V:2] z4z2A2B2G2 | 
[V:3] e12- | 
[V:4] E,4A,,4E,4 | 
[V:1] z2A2B2G2A2c2- | 
[V:2] A2c2B4z2A2 | 
[V:3] e12 | 
[V:4] z2A,,2E,2E,2A,4 | 
[V:1] c2B4A4^G2 | 
[V:2] B2G2A2c2B4 | 
[V:3] e8d4 | 
[V:4] E,4z4z4 | 
[V:1] A8z4 | 
[V:2] A4c3de2f2 | 
[V:3] c3de4A3B | 
[V:4] A,,8A,,4 | 
[V:1] z12 | 
[V:2] e2A2z2A2G2A2 | 
[V:3] c2d2e2f2c3d | 
[V:4] A,,3B,,C,2D,2E,2F,2 | 
[V:1] z4z4E3F | 
[V:2] E2A2G2c2B2e2- | 
[V:3] e2f2g2a2e4- | 
[V:4] C,3D,E,2F,2G,2A,2 | 
[V:1] G2A2B2c2B2G2 | 
[V:2] edc2B2e2z2c2 | 
[V:3] e4z2c2d2e2 | 
[V:4] E,3F,G,2A,2B,2C2 | 
[V:1] A4A8 | 
[V:2] A2c4c2A4- | 
[V:3] f12- | 
[V:4] z2F,4F,2F,4 | 
[V:1] d4d2d2d4 | 
[V:2] A4B4A4- | 
[V:3] f8f4 | 
[V:4] D,12 | 
[V:1] c3de2f4ed | 
[V:2] A8z4 | 
[V:3] e6c2d4 | 
[V:4] A,,8B,,4 | 
[V:1] c8d4 | 
[V:2] z2A4A2B4 | 
[V:3] e4e2f4ed | 
[V:4] A,,8z4 | 
[V:1] e2A3GE2F3E | 
[V:2] A8A4 | 
[V:3] c8d4 | 
[V:4] z4z4D,4 | 
[V:1] C8z2G2- | 
[V:2] z2A4A2B2c2 | 
[V:3] e8e4 | 
[V:4] A,,8E,4 | 
[V:1] G2G2A2c4A2 | 
[V:2] B2c3BAGF2c2 | 
[V:3] z2e2e4f4 | 
[V:4] E,4A,,2A,4F,2 | 
[V:1] B2c3BG2z2c2- | 
[V:2] B2A2c2B2c2A2 | 
[V:3] e4z2e2e4 | 
[V:4] G,2A,2E,4A,4- | 
[V:1] c2A2B2c3BG2 | 
[V:2] z2c2B2A2c2B2 | 
[V:3] f4e8 | 
[V:4] A,2F,2G,2A,2E,4 | 
[V:1] z2c4A2B2c2 | 
[V:2] A2e2f3ed2c2 | 
[V:3] z4z4z2e2 | 
[V:4] z2A,4F,2G,2A,2 | 
[V:1] d3cBAA4^G2 | 
[V:2] B2A2z2e2d2e2 | 
[V:3] f3ed2c2B4 | 
[V:4] D,4z4z2E,2 | 
[V:1] A8z2B2 | 
[V:2] cBAGF2E2D4 | 
[V:3] A8G4 | 
[V:4] F,3E,D,2C,2B,,4 | 
[V:1] c3BA2G2F4 | 
[V:2] E2e2f2e4d2 | 
[V:3] A4z4z4 | 
[V:4] A,,4z4z4 | 
[V:1] E4z2E2E2E2 | 
[V:2] e4z2E2G2G2 | 
[V:3] c4c4c2c2- | 
[V:4] z2A,,2C,2C,2C,3D, | 
[V:1] E2D2E2G4^F2 | 
[V:2] G4B2c2d4 | 
[V:3] c2B2G4A4 | 
[V:4] E,F,G,4E,2D,4 | 
[V:1] G12 | 
[V:2] z2B2B2c4BA | 
[V:3] G4z4G4 | 
[V:4] E,6C,2C,4 | 
[V:1] z12 | 
[V:2] G2A2G2c4B2 | 
[V:3] c6c2d4 | 
[V:4] C,3D,E,2F,2D,4 | 
[V:1] z4z4G4 | 
[V:2] c8z4 | 
[V:3] e12- | 
[V:4] C,12 | 
[V:1] c6c2d4 | 
[V:2] g6g2g4 | 
[V:3] e8d4 | 
[V:4] z4z4G,4 | 
[V:1] e2e4d2c4 | 
[V:2] g4e2g3fe2 | 
[V:3] c4g6g2 | 
[V:4] C,2C4B,2C4 | 
[V:1] B2e4d2c2B2 | 
[V:2] d2B2c2d2e4 | 
[V:3] g12 | 
[V:4] G,4z4E,4 | 
[V:1] A4z2A2A3B | 
[V:2] c4d4A4- | 
[V:3] f12- | 
[V:4] F,4D,4z2F,2- | 
[V:1] c2d4c2B2A2 | 
[V:2] A4d8 | 
[V:3] f12 | 
[V:4] F,2D,2D,8 | 
[V:1] G4G6G2 | 
[V:2] B4c8 | 
[V:3] e12 | 
[V:4] E,4C,8 | 
[V:1] F8F4 | 
[V:2] A4_B8 | 
[V:3] d12 | 
[V:4] D,4_B,,8 | 
[V:1] E4D8 | 
[V:2] G2g4g2g4 | 
[V:3] c6BAB4 | 
[V:4] C,4G,8 | 
[V:1] C2G3EA2G2E2- | 
[V:2] e4z4z4 | 
[V:3] c12 | 
[V:4] C,2E,3C,F,2E,2C,2- | 
[V:1] ECF2E2C3DEF | 
[V:2] z12 | 
[V:3] A12 | 
[V:4] C,A,,D,2C,2A,,3B,,C,D, | 
[V:1] G8G4 | 
[V:2] e4e2e3dB2 | 
[V:3] z2B3Gc2B2G2- | 
[V:4] E,12 | 
[V:1] E8G4 | 
[V:2] z2c3Gc3de2 | 
[V:3] GEA2G2E3FGA | 
[V:4] C,12 | 
[V:1] F3EF2E4D2 | 
[V:2] d6cBA4 | 
[V:3] B2A4G2F4 | 
[V:4] D,12 | 
[V:1] E4z4z2c2 | 
[V:2] z2c2c2B4A2- | 
[V:3] E12- | 
[V:4] z2A,,2A,,2G,,2A,,4 | 
[V:1] c2B4A4^G2 | 
[V:2] A2^G2A4B4 | 
[V:3] E12- | 
[V:4] E,4A,,4z4 | 
[V:1] A2c4BAG3A | 
[V:2] A4z2e4dc | 
[V:3] E12- | 
[V:4] A,,4A,,2C,4B,,A,, | 
[V:1] B2c4B4A2 | 
[V:2] B2A2B4c4 | 
[V:3] E12- | 
[V:4] G,,2A,,4G,,2A,,4 | 
[V:1] B3GG8 ||  
[V:2] B8e4 ||  
[V:3] E12 ||  
[V:4] E,12 ||  
[V:1]  [K:C] [K:clef=treble][M:2/1]z8 | 
[V:2]  [K:C] [K:clef=treble-8][M:2/1]B8 | 
[V:3]  [K:C] [K:clef=treble-8][M:2/1]z8 | 
[V:4]  [K:C] [K:clef=bass][M:2/1]E,8- | 
[V:1] z8 | 
[V:2] c4B4- | 
[V:3] z8 | 
[V:4] E,8- | 
[V:1] B8 | 
[V:2] B4G4- | 
[V:3] z8 | 
[V:4] E,8- | 
[V:1] c4B4- | 
[V:2] G2A2B4 | 
[V:3] z8 | 
[V:4] E,8 | 
[V:1] B4G4 | 
[V:2] G4c4- | 
[V:3] z8 | 
[V:4] E,8 | 
[V:1] A4B4 | 
[V:2] c2BAG4 | 
[V:3] z8 | 
[V:4] F,4E,4- | 
[V:1] c6B2 | 
[V:2] z2c3de2 | 
[V:3] z8 | 
[V:4] E,4C,4 | 
[V:1] A4G4 | 
[V:2] f4e2c2- | 
[V:3] z8 | 
[V:4] D,4E,4 | 
[V:1] z2A4GA | 
[V:2] cBA3Gc2- | 
[V:3] z8 | 
[V:4] F,6E,2 | 
[V:1] BAGFE4 | 
[V:2] c2B2c4 | 
[V:3] z8 | 
[V:4] D,4C,4 | 
[V:1] G6G2 | 
[V:2] e6e2 | 
[V:3] c8- | 
[V:4] z4C,4- | 
[V:1] G4G4 | 
[V:2] e4e4 | 
[V:3] c4G4 | 
[V:4] C,2D,2E,4 | 
[V:1] F8 | 
[V:2] c4d4 | 
[V:3] A4B4 | 
[V:4] F,4D,4 | 
[V:1] E6F2 | 
[V:2] G4c4- | 
[V:3] c6d2 | 
[V:4] C,8 | 
[V:1] G8 | 
[V:2] c2BAG4 | 
[V:3] e8- | 
[V:4] z4C,4 | 
[V:1] z2G2G3A | 
[V:2] z8 | 
[V:3] e8 | 
[V:4] E,4E,3F, | 
[V:1] B2c2B2c2- | 
[V:2] z4z2A2 | 
[V:3] z8 | 
[V:4] G,2A,2G,2A,2- | 
[V:1] c2BAG4 | 
[V:2] c3de4 | 
[V:3] z8 | 
[V:4] A,2G,F,E,4 | 
[V:1] z2G2G3A | 
[V:2] z2E2E3F | 
[V:3] e8- | 
[V:4] z8 | 
[V:1] B2c2B2c2- | 
[V:2] G2A2G2A2- | 
[V:3] e4e4 | 
[V:4] z4z2A,,2 | 
[V:1] c2BAG4 | 
[V:2] ABc4BA | 
[V:3] e8 | 
[V:4] C,3D,E,4- | 
[V:1] B6B2 | 
[V:2] G6G2 | 
[V:3] e4e4 | 
[V:4] E,2E,2E,4- | 
[V:1] B4B4 | 
[V:2] G8 | 
[V:3] e4e4 | 
[V:4] E,4E,4 | 
[V:1] c4c4 | 
[V:2] A4G2A2 | 
[V:3] e8 | 
[V:4] A,,4C,4 | 
[V:1] d6c2 | 
[V:2] B2c2d2e2 | 
[V:3] d8 | 
[V:4] B,,4G,,4 | 
[V:1] B4A4 | 
[V:2] f2g4^f2 | 
[V:3] d8 | 
[V:4] D,8 | 
[V:1] z2G2D2G2- | 
[V:2] g4z4 | 
[V:3] d8- | 
[V:4] G,,4G,3A, | 
[V:1] G2FED4 | 
[V:2] z8 | 
[V:3] d8 | 
[V:4] B,2C4B,2 | 
[V:1] z2C3DE2 | 
[V:2] e4c3d | 
[V:3] g8- | 
[V:4] C4z2C,2- | 
[V:1] C2G3FE2- | 
[V:2] e2c4BA | 
[V:3] g8 | 
[V:4] C,D,E,2C,2G,2- | 
[V:1] E2D4^C2 | 
[V:2] G8 | 
[V:3] g8 | 
[V:4] G,2F,2E,4 | 
[V:1] D4z2D2 | 
[V:2] A8 | 
[V:3] f8 | 
[V:4] D,8 | 
[V:1] D2D3EF2 | 
[V:2] B4A4- | 
[V:3] f4f4- | 
[V:4] z2D,2D,2D,2- | 
[V:1] D2A3GF2- | 
[V:2] A4A2c2- | 
[V:3] f2f2f4 | 
[V:4] D,E,F,2D,2A,2- | 
[V:1] FEDCD4 | 
[V:2] c2B2A4 | 
[V:3] f8 | 
[V:4] A,2G,2F,4 | 
[V:1] E8 | 
[V:2] B4B2c2- | 
[V:3] g8- | 
[V:4] E,8- | 
[V:1] z4B4 | 
[V:2] c2BAB4 | 
[V:3] g8 | 
[V:4] E,8 | 
[V:1] c6BA | 
[V:2] A4z2A2 | 
[V:3] z8 | 
[V:4] A,,8 | 
[V:1] G2A2E4 | 
[V:2] c2A2c3d | 
[V:3] z8 | 
[V:4] z4z2A,,2 | 
[V:1] z4z2E2 | 
[V:2] e6dc | 
[V:3] z8 | 
[V:4] C,2A,,2C,3D, | 
[V:1] G2E2G3A | 
[V:2] B2c2G4 | 
[V:3] z8 | 
[V:4] E,6D,C, | 
[V:1] B4c4- | 
[V:2] z4z2A2 | 
[V:3] z8 | 
[V:4] B,,4A,,4 | 
[V:1] c2BAG2A2 | 
[V:2] c2A2c3d | 
[V:3] z8 | 
[V:4] z4z2A,,2 | 
[V:1] E4z2E2 | 
[V:2] e6dc | 
[V:3] z8 | 
[V:4] C,2A,,2C,3D, | 
[V:1] G2E2G3A | 
[V:2] B2c3BA2- | 
[V:3] z8 | 
[V:4] E,6D,C, | 
[V:1] B4c4- | 
[V:2] A2^G2A4 | 
[V:3] z8 | 
[V:4] B,,4A,,4 | 
[V:1] c2BAG2A2 | 
[V:2] e8 | 
[V:3] z8 | 
[V:4] z2A,,2C,2A,,2 | 
[V:1] E2A4^G2 | 
[V:2] c4B4 | 
[V:3] z8 | 
[V:4] C,3D,E,4 | 
[V:1] A8 | 
[V:2] A8 | 
[V:3] c8 | 
[V:4] A,,4A,4- | 
[V:1] z4A4 | 
[V:2] z4e4 | 
[V:3] c4c4- | 
[V:4] A,4A,4 | 
[V:1] A4A4 | 
[V:2] e4e4 | 
[V:3] c4c4 | 
[V:4] A,4A,4 | 
[V:1] A4A4 | 
[V:2] e4f4 | 
[V:3] c4c4 | 
[V:4] A,4A,4 | 
[V:1] c4c4 | 
[V:2] e4f4 | 
[V:3] c8 | 
[V:4] A,8 | 
[V:1] B6AG | 
[V:2] g4G2d2- | 
[V:3] d8- | 
[V:4] G,4z2G,2 | 
[V:1] A2G4^F2 | 
[V:2] dcB2A4 | 
[V:3] d8- | 
[V:4] F,2G,2D,4 | 
[V:1] G2d3cB2- | 
[V:2] G8 | 
[V:3] d8- | 
[V:4] z4z2G,2- | 
[V:1] B2A4^G2 | 
[V:2] z4d4 | 
[V:3] d8 | 
[V:4] G,2A,2B,4 | 
[V:1] A4A4 | 
[V:2] e4e2f2- | 
[V:3] c8 | 
[V:4] A,8 | 
[V:1] A6GF | 
[V:2] f2e2e4 | 
[V:3] c4c4 | 
[V:4] A,4A,2A,2- | 
[V:1] E2F2G4- | 
[V:2] z4e4 | 
[V:3] c4c4 | 
[V:4] A,2G,F,E,2F,2 | 
[V:1] G2FED4 | 
[V:2] d4g4- | 
[V:3] B4B4 | 
[V:4] G,8 | 
[V:1] z8 | 
[V:2] g4g4 | 
[V:3] B2B4B2 | 
[V:4] G,4G,2G,2- | 
[V:1] d4d2d2- | 
[V:2] g8- | 
[V:3] B2B2B4- | 
[V:4] G,2G,2G,4 | 
[V:1] d2d2d2d2 | 
[V:2] g8 | 
[V:3] B4B4 | 
[V:4] G,8 | 
[V:1] e6dc | 
[V:2] g2g4g2 | 
[V:3] c6d2 | 
[V:4] C,8 | 
[V:1] c4z4 | 
[V:2] g2G2A4 | 
[V:3] e4f4 | 
[V:4] z2C,4D,2 | 
[V:1] z2c4d2 | 
[V:2] G4A4 | 
[V:3] e6d2- | 
[V:4] E,4F,4 | 
[V:1] e4f4 | 
[V:2] G2A2F4 | 
[V:3] d2c4B2 | 
[V:4] E,2C,2D,4 | 
[V:1] e4c2d2- | 
[V:2] G4z4 | 
[V:3] c3de2f2 | 
[V:4] C,4z4 | 
[V:1] d2cBA2G2- | 
[V:2] z8 | 
[V:3] d2f4e2- | 
[V:4] z8 | 
[V:1] G2c4B2 | 
[V:2] z4g4 | 
[V:3] e2dcd4 | 
[V:4] z4G,4 | 
[V:1] c8 | 
[V:2] e4e2f2- | 
[V:3] c8- | 
[V:4] A,4A,4- | 
[V:1] z4c4 | 
[V:2] f2a2g2f2 | 
[V:3] c8 | 
[V:4] A,2G,F,E,2F,2- | 
[V:1] c4c4 | 
[V:2] g4f2c2 | 
[V:3] z8 | 
[V:4] F,2E,2F,2A,2 | 
[V:1] B4B4 | 
[V:2] d2f4e2 | 
[V:3] z8 | 
[V:4] G,3F,G,4 | 
[V:1] A4A4 | 
[V:2] f4f4 | 
[V:3] c8 | 
[V:4] F,4F,4 | 
[V:1] A4c4 | 
[V:2] f3de2f2 | 
[V:3] c4c4 | 
[V:4] F,4A,4 | 
[V:1] B4d4 | 
[V:2] g8 | 
[V:3] d4B4 | 
[V:4] G,4G,4 | 
[V:1] c4A4 | 
[V:2] e4f4- | 
[V:3] c8 | 
[V:4] A,4F,4 | 
[V:1] A4B4- | 
[V:2] f2e2d4- | 
[V:3] d8 | 
[V:4] F,4G,4- | 
[V:1] B2A2G4- | 
[V:2] d4c4 | 
[V:3] G8 | 
[V:4] G,2F,2E,4 | 
[V:1] G4^F4 | 
[V:2] d8 | 
[V:3] A8 | 
[V:4] D,8 | 
[V:1] G8 |]  
[V:2] d8 |]  
[V:3] G8 |]  
[V:4] G,,8 |]  



